X:79
T:?
M:3/4
L:1/8
S:Kevin Keegan
R:waltz
K:G
D EF GA|:B3 ABd|(3cdc B2 c^c|d2 g2 Be|d3 edc|\
BG DG Bd|(3cdc A3 G|FF Ad D2|FF Ad D2|
B3 ABd|(3cdc B2 c^c|d2 g2 Be|d3 edc|\
BG DG Bd|(3cdc A2 FA|G6|G6:|
Bd|g3 g g2|g2 f2 e^d|d2 g2 Be|d3 edc|\
BG DG Bd|(3cdc A3 G|FF Ad D2|FF Ad D2|
g3 g g2|g2 f2 e^d|d2 g2 Be|d3 edc|\
BG DG Bd|(3cdc A2 FA|G6|G4 Bd|
g3 g g2|g2 f2 e^d|d2 g2 Be|d3 edc|\
BG DG Bd|(3cdc A3 G|FF Ad D2|FF Ad D2|
B3 ABd|(3cdc B2 c^c|d2 g2 Be|d3 edc|\
BG DG Bd|(3cdc A2 FA|G6|G6||


